assets/questionMark.svg

<svg xmlns="http://www.w3.org/2000/svg" width="24" height="26" fill="none" xmlns:v="https://vecta.io/nano"><style>circle{mix-blend-mode:difference}.A{mix-blend-mode:difference}</style><circle cx="12" cy="12" r="11.5" stroke="#fff"/><path class="A" d="M8 10.198h1.512c.1-1.584.684-2.88 2.52-2.88 1.35 0 2.196.864 2.196 2.268 0 .756-.252 1.296-1.026 2.07-1.476 1.476-1.98 1.944-1.98 4.122v.108h1.476c0-2.106.54-2.34 1.746-3.474.882-.828 1.404-1.656 1.404-3.006 0-2.106-1.494-3.456-3.798-3.456C9.286 5.95 8 7.84 8 10.198zm4.878 6.984h-1.9V19h1.9v-1.818z" fill="#fff"/></svg>

<svg class="circle" width="24" height="26" viewBox="0 0 24 26" fill="none" xmlns="http://www.w3.org/2000/svg">
                    <style>
                        circle {
                            stroke: white;
                            mix-blend-mode: difference;
                        }

                        .quest {
                            fill: white;
                            mix-blend-mode: difference;
                        }
                    </style>
                    <circle cx="12" cy="12" r="11.5" fill="none" stroke="#001E20"/>
                    <path class="quest" d="M7.99 10.198H9.502C9.592 8.614 10.186 7.318 12.022 7.318C13.372 7.318 14.218 8.182 14.218 9.586C14.218 10.342 13.966 10.882 13.192 11.656C11.716 13.132 11.212 13.6 11.212 15.778V15.886H12.688C12.688 13.78 13.228 13.546 14.434 12.412C15.316 11.584 15.838 10.756 15.838 9.406C15.838 7.3 14.344 5.95 12.04 5.95C9.286 5.95 7.99 7.84 7.99 10.198ZM12.868 17.182H10.978V19H12.868V17.182Z" fill="#001E20"/>
                </svg>
